www/assets/icons/male.svg

<svg xmlns="http://www.w3.org/2000/svg" width="24" height="24" viewBox="0 0 24 24" fill='currentColor'><path d="M9.5 11c1.93 0 3.5 1.57 3.5 3.5S11.43 18 9.5 18 6 16.43 6 14.5 7.57 11 9.5 11m0-2C6.46 9 4 11.46 4 14.5S6.46 20 9.5 20s5.5-2.46 5.5-5.5c0-1.16-.36-2.23-.97-3.12L18 7.42V10h2V4h-6v2h2.58l-3.97 3.97C11.73 9.36 10.66 9 9.5 9"/></svg>

<svg width="24" height="24" viewBox="0 0 24 24" xmlns="http://www.w3.org/2000/svg" fill='currentColor'><path d="M9.5 11C11.43 11 13 12.57 13 14.5C13 16.43 11.43 18 9.5 18C7.57 18 6 16.43 6 14.5C6 12.57 7.57 11 9.5 11ZM9.5 9C6.46 9 4 11.46 4 14.5C4 17.54 6.46 20 9.5 20C12.54 20 15 17.54 15 14.5C15 13.34 14.64 12.27 14.03 11.38L18 7.42V10H20V4H14V6H16.58L12.61 9.97C11.73 9.36 10.66 9 9.5 9Z"/></svg>
